pointercrate-demonlist-pages/static/images/flags/ua/07.svg

<?xml version="1.0" encoding="UTF-8"?>
<svg width="1200px" height="800px" viewBox="0 0 180 120" xmlns="http://www.w3.org/2000/svg">
 <rect width="180" height="120" fill="#F01414"/>
 <path d="m0 50h50v-50h20v50h110v20h-110v50h-20v-50h-50z" fill="#fff"/>
 <path d="m44 20-17 3 3-17h-10l3 17-17-3v10l17-3-3 17h10l-3-17 17 3z" fill="#fff"/>
</svg>

<svg xmlns="http://www.w3.org/2000/svg" width="1200px" height="800px" viewBox="0 0 180 120">
<rect fill="#F01414" width="180" height="120"/>
<path fill="white" d="M0,50 h50 v-50 h20 v50 h110 v20 H70v50H50V70H0z"/>
<path fill="white" d="M44,20 27,23 30,6 20,6 23,23 6,20 6,30 23,27 20,44 30,44 27,27 44,30z"/>
</svg>
